static/mail.svg

<svg width="24" height="24" viewBox="0 0 24 24" fill="none" xmlns="http://www.w3.org/2000/svg">
<g clip-path="url(#clip0_75_35)">
<path d="M20 4H4C2.9 4 2.01 4.9 2.01 6L2 18C2 19.1 2.9 20 4 20H20C21.1 20 22 19.1 22 18V6C22 4.9 21.1 4 20 4ZM20 18H4V8L12 13L20 8V18ZM12 11L4 6H20L12 11Z" fill="#1C1C1C"/>
</g>
<defs>
<clipPath id="clip0_75_35">
<rect width="24" height="24" fill="white"/>
</clipPath>
</defs>
</svg>

<svg xmlns="http://www.w3.org/2000/svg" width="24" height="24" fill="none" viewBox="0 0 24 24"><g clip-path="url(#mail_svg_a)"><path fill="currentColor" d="M20 4H4a2 2 0 0 0-1.99 2L2 18c0 1.1.9 2 2 2h16a2 2 0 0 0 2-2V6a2 2 0 0 0-2-2m0 14H4V8l8 5 8-5zm-8-7L4 6h16z"/></g><defs><clipPath id="mail_svg_a"><path fill="#fff" d="M0 0h24v24H0z"/></clipPath></defs></svg>
